X:1
T:Pobblebonk
C:Sarah Gowan 5/2007 
M:4/4
R:reel
K:Em
"Em"ED E2 G2>G2|"D" AG d2"G" B2d2|"Em"ed B2 A2 GA| BG E2 "D"D2D2|
"Em"ED E2 G2>G2| "D"AG d2 "C"e4|"Em"ed B2 "Am"A2 GA|"G"BG D2 "Em"E4:|
|:"C" e2f2 "G"d2Bd|edB2"D"d2e2|"G"g2e2d2B2|"Am"AGE2"D"D2D2|
"C"EDE2 GEG2|"D"AG d2B2 d2|"Em"ed B2"Am"A2 GA|"G"BG D2"Em"E4:|
